!!!OTL: Abendreihen
!!!ARE: Europa, Mitteleuropa, Deutschland
!!!SCT: A0283A
!!!YEM: Copyright 1995, estate of Helmut Schaffrath.
**kern
*ICvox
*Ivox
*M4/2
*k[f#]
*G:
{0g
=1
1b
1a
=2
1b
1cc
=3
1dd
2r
2ee
=4
1dd
1b
=5
0g}
=6
{0g
=7
1b
1a
=8
1b
1cc
=9
1dd
2r
2ee
=10
1dd
1b
=11
1g}
{1dd
=12
1b
1a
=13
1g
1d
=14
2a
2b
2cc
2b
=15
0g}
==
!!!AGN: Romanze, Ballade, Lied
!! Babst Gsgb 1545 II Bl. 37
!!!ONB: ESAC (Essen Associative Code) Database: ALTDEU
!!!AMT: simple quadruple
!!!AIN: vox
!!!EED: Helmut Schaffrath
!!!EEV: 1.0
*-
